!! 00000] TT[WS
!!!OTL: Liusanr tuiche
!!!ARE: Asia, China, Shanxi Taiyuan
!! Ethnic Group: Han
!! WI, 189 (2)
!!!SCT: J0226
!!!YEM: Copyright 1995, estate of Helmut Schaffrath.
**kern
*ICvox
*Ivox
!! Mixed meters:  2/4; 3/4
*M2/4
*k[b-e-]
*B-:
{8dd
16f
16g
4b-
=1
8dd
16f
16g
4b-
=2
16b-
16cc
16dd
16ff
16dd
16cc
16b-
16g
=3
8.cc
16dd
16f
16g
8b-}
=4
{8r
8dd
16dd
16cc
16dd
16cc
=5
16a
16cc
16a
16g
8.f
16g
=6
16b-
16g
16b-
16dd
8b-
16g
16d
=7
*M3/4
8f
16f
16g
8.b-
16g
16b-
16b-
16b-
16g}
=8
*M2/4
{8a
8dd
4g
=9
16a
16cc
16a
16g
16a
16cc
16a
16a
=10
16g
16a
16g
16f
4d
=11
8b-
16b-
16dd
16dd
16cc
8b-
=12
8g
16g
16a
4g}
=13
{16b-
16cc
16dd
16ff
16dd
16cc
8b-
=14
8g
16g
16a
4d
=15
8dd
16cc
16b-
8.b-
16a
=16
8g
16g
16a
4d}
=17
{8dd
16dd
16cc
4b-
=18
8g
16g
16b-
4d
=19
8f
16f
16g
8f
8g
=20
8ff
16ff
16dd
16cc
16ff
16dd
16cc
=21
8b-
8b-
4g}
=22
{16g
16b-
16d
16f
4g
=23
8b-
8b-
8.g
16b-
=24
16g
16b-
16d
16f
4g}
=25
{8b-
8r
8g
8r
=26
16g
16b-
16g
16f
16g
16b-
16g
16f
=27
8b-
16f
16g
8b-
8b-
=28
2b-}
==
!!!AGN: Xiaodiao. Fengsuge, Qingge
!!!ONB: ESAC (Essen Associative Code) Database: CHINA
!!!AMT: irregular
!!!AIN: vox
!!!EED: Helmut Schaffrath
!!!EEV: 1.0
*-
